!!!COM: Haydn, Franz Joseph
!!!OTL: String Quartet in A Major
!!!OPS: Opus 55
!!!ONM: No. 1
!!!OMD: Finale: Vivace
!!!OMV: 4
!!!SCT: H III:60
!!!SCA: Thematisch-bibliographisches Werkevererzeichnis (A. van Hoboken)
!!!YOR: Dover Edition; reprint of Eulenburg Edition
!!!ENC: Walter Hewlett
!!!CDT: 1732/3/31/-1809/5/31/
!!!CNT: Oesterreich
!!!YEC: Copyright (c) 1994, 2000 Center for Computer Assisted Research in the Humanities
!!!YEM: Rights to all derivative editions reserved.
!!!YEM: Refer to licensing agreement for further details.
!!!YEN: United States of America
**kern	**dynam	**kern	**dynam	**kern	**dynam	**kern	**dynam
*I:Violonecello	*I:Violonecello	*I:Viola	*I:Viola	*I:Violino II	*I:Violino II	*I:Violino I	*I:Violino I
*>[A,A,B,B,C]	*	*>[A,A,B,B,C]	*	*>[A,A,B,B,C]	*	*>[A,A,B,B,C]	*
*>A	*	*>A	*	*>A	*	*>A	*
*clefF4	*	*clefC3	*	*clefG2	*	*clefG2	*
*k[f#c#g#]	*	*k[f#c#g#]	*	*k[f#c#g#]	*	*k[f#c#g#]	*
*A:	*	*A:	*	*A:	*	*A:	*
*M4/4	*	*M4/4	*	*M4/4	*	*M4/4	*
! Vivace	!	! Vivace	!	! Vivace	!	! Vivace	!
4r	.	4r	.	4r	.	(8bb\L	p
.	.	.	.	.	.	8aa\J)	.
2ryy	.	2ryy	.	2ryy	.	2ryy	.
4ryy	.	4ryy	.	4ryy	.	4ryy	.
=1	=1	=1	=1	=1	=1	=1	=1
1r	.	1r	.	1r	.	(8gg#\L	.
.	.	.	.	.	.	8aa\)	.
.	.	.	.	.	.	(8ff#\	.
.	.	.	.	.	.	8gg#\J)	.
.	.	.	.	.	.	(8ee\L	.
.	.	.	.	.	.	8ff#\)	.
.	.	.	.	.	.	(8dd\	.
.	.	.	.	.	.	8ee\J)	.
=2	=2	=2	=2	=2	=2	=2	=2
4A'\	p	4e'\	p	4e'/	p	4cc#'\	.
(4A'\	<	(4e'\	<	(4e'/	<	(4cc#'\	<
4A'\	.	4e'\	.	4e'/	.	4cc#'\	.
4A'\)	]	4e'\)	]	4e'/)	]	4cc#'\)	]
=3	=3	=3	=3	=3	=3	=3	=3
(2.G#\	f	[1e\	f	(2.b\	f	(4ee\	f
.	.	.	.	.	.	4dd#\	.
.	.	.	.	.	.	4ddn\	.
4A\)	.	.	.	4a/)	.	4cc#\)	.
=4	=4	=4	=4	=4	=4	=4	=4
2E\	.	2e\]	.	2g#/	.	&(8b\L)	.
.	.	.	.	.	.	8a\	.
.	.	.	.	.	.	8b\	.
.	.	.	.	.	.	8cc#\J&)	.
2r	.	2r	.	2r	.	4b\	.
.	.	.	.	.	.	(8bb\L	p
.	.	.	.	.	.	8aa\J)	.
=5	=5	=5	=5	=5	=5	=5	=5
1r	.	1r	.	1r	.	(8gg#\L	.
.	.	.	.	.	.	8aa\)	.
.	.	.	.	.	.	(8ff#\	.
.	.	.	.	.	.	8gg#\J)	.
.	.	.	.	.	.	(8ee\L	.
.	.	.	.	.	.	8ff#\)	.
.	.	.	.	.	.	(8dd\	.
.	.	.	.	.	.	8ee\J)	.
=6	=6	=6	=6	=6	=6	=6	=6
4A\	p	4e\	p	4gn/	p	4cc#\	<
(4A'\	<	(4e'\	<	(4g'/	<	(4cc#'\	.
4A'\	.	4e'\	.	4g'/	.	4cc#'\	.
4A'\)	]	4e'\)	]	4g'/)	]	4cc#'\)	]
=7	=7	=7	=7	=7	=7	=7	=7
2D\	f	2d\	f	(4gn/	f	(4ee\	f
.	.	.	.	4f#/)	.	4dd\)	.
2r	.	2r	.	2r	.	(8ff#\L	.
.	.	.	.	.	.	8gg#\)	.
.	.	.	.	.	.	(8gg#\	.
.	.	.	.	.	.	8aa\J)	.
=8	=8	=8	=8	=8	=8	=8	=8
2E\	>	(2e\	.	(2c#/	>	(2.a/	.
2EE/	]	2G#/)	.	4e/	.	.	.
.	.	.	.	4d/)	]	8cc#\L	.
.	.	.	.	.	.	8b\J)	.
=9	=9	=9	=9	=9	=9	=9	=9
(4AA/	mf	4A/	.	4c#/	.	4a/	.
8C#\L	.	4r	.	4r	.	4r	.
8E\J)	.	.	.	.	.	.	.
4A'\	.	4r	.	4r	.	4r	.
=:!!:	=:!!:	=:!!:	=:!!:	=:!!:	=:!!:	=:!!:	=:!!:
*>B	*	*>B	*	*>B	*	*>B	*
4r	.	4r	.	(8e/L	mf	(8g#/L	mf
.	.	.	.	8f#/J)	.	8a/J)	.
2ryy	.	2ryy	.	2ryy	.	2ryy	.
4ryy	.	4ryy	.	4ryy	.	4ryy	.
=10	=10	=10	=10	=10	=10	=10	=10
1r	.	1r	.	(8g#/L	.	(8b\L	.
.	.	.	.	8f#/)	.	8a\)	.
.	.	.	.	(8a/	.	(8cc#\	.
.	.	.	.	8g#/J)	.	8b\J)	.
.	.	.	.	4b'\	.	4dd'\	.
.	.	.	.	4a'/	.	4cc#'\	.
=11	=11	=11	=11	=11	=11	=11	=11
4r	.	4r	.	4g#/	.	4b'\	.
(8G#\L	mf	(8b\L	mf	(8e/L	.	4ee'\	.
8F#\J)	.	8a\J)	.	8f#/J)	.	.	.
4E'\	.	4g#'\	.	4g#'/	.	4ee'\	.
4G#'\	.	4b'\	.	4e'/	.	4ee'\	.
=12	=12	=12	=12	=12	=12	=12	=12
4F#'\	.	4a'\	.	4f#'/	.	(8dd#\L	.
.	.	.	.	.	.	8ee\	.
(8D#/L	.	(8f#\L	.	(8dd#\L	.	8ff#\	.
8C#/J)	.	8e\J)	.	8ee\J)	.	8gg#\J)	.
4BB'/	.	4d#'\	.	4ff#'\	.	4aa'\	.
4D#'\	.	4f#'\	.	4b'\	.	4aa'\	.
=13	=13	=13	=13	=13	=13	=13	=13
2E\	.	2.e\	.	2b\	.	(8aa\L	.
.	.	.	.	.	.	8gg#\	.
.	.	.	.	.	.	8bb\	.
.	.	.	.	.	.	8gg#\J)	.
2r	.	.	.	2r	.	4ee'\	.
.	.	(8e\L	.	.	.	(8gg#\L	.
.	.	8f#\J)	.	.	.	8aa\J)	.
=14	=14	=14	=14	=14	=14	=14	=14
2r	.	(8g#\L	.	2r	.	(8bb\L	.
.	.	8f#\)	.	.	.	8aa\)	.
.	.	(8a\	.	.	.	(8ccc#\	.
.	.	8g#\J)	.	.	.	8bb\J)	.
4r	.	4b'\	.	4r	.	4ddd'\	.
4G#'\	.	4b'\	.	4ee'\	.	4ddd'\	.
=15	=15	=15	=15	=15	=15	=15	=15
4A'\	.	4a'\	.	(4ee\	.	2.ccc#\	.
4A'\	.	4A'/	.	4ee#\	.	.	.
4A\	.	4A'/	.	4ff#\)	.	.	.
4A\	.	4A'/	.	(8cc#\L	.	(8aa\L	.
.	.	.	.	8a\J)	.	8ff#\J)	.
=16	=16	=16	=16	=16	=16	=16	=16
4B'\	.	4B'/	.	4g#'/	.	4ee'\	.
4B'\	.	4B'/	.	4g#'/	.	4ee'\	.
4BB/	.	4B'/	.	4g#'/	.	4ee'\	.
4BB/	.	4B'/	.	(8a/L	.	(8gg#\L	.
.	.	.	.	8d#/J)	.	8ff#\J)	.
=17	=17	=17	=17	=17	=17	=17	=17
[1E\	.	2E/	.	(8e/L	.	2.ee\	.
.	.	.	.	8f#/	.	.	.
.	.	.	.	8gn/	.	.	.
.	.	.	.	8f#/J)	.	.	.
.	.	2r	.	(8e/L	.	.	.
.	.	.	.	8f#/	.	.	.
.	.	.	.	8e/	.	(8ggn\L	.
.	.	.	.	8dn/J)	.	8ff#\J)	.
=18	=18	=18	=18	=18	=18	=18	=18
! dim.	!	! dim.	!	! dim.	!	! dim.	!
1E\_	.	(1A#/	.	(1c#/	.	(8ee\L	.
.	.	.	.	.	.	8ff#\)	.
.	.	.	.	.	.	(8dd\	.
.	.	.	.	.	.	8ee\J)	.
.	.	.	.	.	.	4cc#'\	.
.	.	.	.	.	.	(8ff#\L	.
.	.	.	.	.	.	8ee\J)	.
=19	=19	=19	=19	=19	=19	=19	=19
1E\_	.	1B/	.	1d/	.	(8dd\L	.
.	.	.	.	.	.	8ee\)	.
.	.	.	.	.	.	(8cc#\	.
.	.	.	.	.	.	8dd\J)	.
.	.	.	.	.	.	4b'\	.
.	.	.	.	.	.	(8ff#\L	.
.	.	.	.	.	.	8ee\J)	.
=20	=20	=20	=20	=20	=20	=20	=20
1E\]	.	1G#/)	.	1B/)	.	(8dd\L	.
.	.	.	.	.	.	8ee\)	.
.	.	.	.	.	.	(8cc#\	.
.	.	.	.	.	.	8dd\J)	.
.	.	.	.	.	.	4b'\	.
.	.	.	.	.	.	4r	.
=21	=21	=21	=21	=21	=21	=21	=21
1r	.	1r	.	1r	.	2r	.
.	.	.	.	.	.	4r	.
.	.	.	.	.	.	(8bb\L	p
.	.	.	.	.	.	8aa\J)	.
=22	=22	=22	=22	=22	=22	=22	=22
1r	.	1r	.	1r	.	(8gg#\L	.
.	.	.	.	.	.	8aa\)	.
.	.	.	.	.	.	(8ff#\	.
.	.	.	.	.	.	8gg#\J)	.
.	.	.	.	.	.	(8ee\L	.
.	.	.	.	.	.	8ff#\)	.
.	.	.	.	.	.	(8dd\	.
.	.	.	.	.	.	8ee\J)	.
=23	=23	=23	=23	=23	=23	=23	=23
4A'\	p	4e'\	p	4e/	p	4cc#'\	.
(4A'\	<	(4e'\	<	(4e'/	<	(4cc#'\	<
4A'\	.	4e'\	.	4e'/	.	4cc#'\	.
4A'\)	]	4e'\)	]	4e'/)	]	4cc#'\)	]
=24	=24	=24	=24	=24	=24	=24	=24
(2.G#\	f	[1e\	f	(2.b\	f	(4ee\	f
.	.	.	.	.	.	4dd#\	.
.	.	.	.	.	.	4ddn\	.
4A\)	.	.	.	4a/)	.	4cc#\)	.
=25	=25	=25	=25	=25	=25	=25	=25
2E\	.	2e\]	.	2g#/	.	&(8b\L)	.
.	.	.	.	.	.	8a\	.
.	.	.	.	.	.	8b\	.
.	.	.	.	.	.	8cc#\J&)	.
2r	.	2r	.	2r	.	4b'\	.
.	.	.	.	.	.	(8bb\L	p
.	.	.	.	.	.	8aa\J)	.
=26	=26	=26	=26	=26	=26	=26	=26
1r	.	1r	.	1r	.	(8gg#\L	.
.	.	.	.	.	.	8aa\)	.
.	.	.	.	.	.	(8ff#\	.
.	.	.	.	.	.	8gg#\J)	.
.	.	.	.	.	.	(8ee\L	.
.	.	.	.	.	.	8ff#\)	.
.	.	.	.	.	.	(8dd\	.
.	.	.	.	.	.	8ee\J)	.
=27	=27	=27	=27	=27	=27	=27	=27
4A\	p	4e\	p	4gn/	p	4cc#\	<
(4A'\	<	(4e'\	<	(4g'/	<	(4cc#'\	.
4A'\	.	4e'\	.	4g'/	.	4cc#'\	.
4A'\)	]	4e'\)	]	4g'/)	]	4cc#'\)	]
=28	=28	=28	=28	=28	=28	=28	=28
2D\	f	2d\	f	(4gn/	f	(4ee\	f
.	.	.	.	4f#/)	.	4dd\)	.
2r	.	2r	.	2r	.	(8ff#\L	.
.	.	.	.	.	.	8gg#\)	.
.	.	.	.	.	.	(8gg#\	.
.	.	.	.	.	.	8aa\J)	.
=29	=29	=29	=29	=29	=29	=29	=29
2E\	>	(2e\	>	(2c#/	>	(2.a/	>
2EE/	]	2G#/)	]	4e/	.	.	.
.	.	.	.	4d/)	]	8cc#\L	.
.	.	.	.	.	.	8b\J)	]
=30a	=30a	=30a	=30a	=30a	=30a	=30a	=30a
*>1st ending	*	*>1st ending	*	*>1st ending	*	*>1st ending	*
(4AA/	mf	4A/	.	4c#/	.	4a/	.
8C#\L	.	4r	.	4r	.	4r	.
8E\J)	.	.	.	.	.	.	.
4A'\	.	4r	.	4r	.	4r	.
=30b:|!	=30b:|!	=30b:|!	=30b:|!	=30b:|!	=30b:|!	=30b:|!	=30b:|!
*>2nd ending	*	*>2nd ending	*	*>2nd ending	*	*>2nd ending	*
*>C	*	*>C	*	*>C	*	*>C	*
4AA/	<	4A/	.	4c#/	.	4a/	.
4AA/	.	4r	.	4r	.	4r	.
4AA/	.	2r	.	2r	.	4r	.
4AA/	]	.	.	.	.	(8G#/L	f
.	.	.	.	.	.	8A/J)	.
=31	=31	=31	=31	=31	=31	=31	=31
4AA/	f	4r	.	1r	.	(8B/L	.
.	.	.	.	.	.	8c#/)	.
4AA/	.	8B'/L	f	.	.	8d'/	.
.	.	8c#'/J	.	.	.	8e'/J	.
4AA/	.	(8d\L	.	.	.	(8f#/L	.
.	.	8e\)	.	.	.	8g#/)	.
4AA/	.	8f#'\	.	.	.	8a'/	.
.	.	8g#'\J	.	.	.	8b'/J	.
=32	=32	=32	=32	=32	=32	=32	=32
4AA/	.	4a'\	.	2r	.	4cc#'\	.
4AA/	.	4b'\	.	.	.	4dd'\	.
4AA/	.	4cc#'\	.	4r	.	4ee'\	.
4AA/	.	4r	.	(8G#/L	f	(8B/L	.
.	.	.	.	8A/J)	.	8c#/J)	.
=33	=33	=33	=33	=33	=33	=33	=33
4AA/	.	1r	.	(8B/L	.	(8d/L	.
.	.	.	.	8c#/)	.	8e/)	.
4AA/	.	.	.	8d'/	.	8f#'/	.
.	.	.	.	8e'/J	.	8g#'/J	.
4AA/	.	.	.	(8f#/L	.	(8a\L	.
.	.	.	.	8g#/)	.	8b\)	.
4AA/	.	.	.	8a'/	.	8cc#'\	.
.	.	.	.	8b'/J	.	8dd'\J	.
=34	=34	=34	=34	=34	=34	=34	=34
4AA/	.	2r	.	4cc#\	.	4ee'\	.
4AA/	.	.	.	(8dd\L	.	4gg#'\	.
.	.	.	.	8b\J)	.	.	.
4AA/	.	4r	.	4cc#\	.	4aa'\	.
(8A\L	.	(8cc#\L	.	(8a/L	.	4ccc#'\	.
8G#\J)	.	8b\J)	.	8b/J)	.	.	.
=35	=35	=35	=35	=35	=35	=35	=35
(8F#\L	.	(8a\L	.	4cc#'\	.	4ccc#'\	.
8E\)	.	8g#\)	.	.	.	.	.
8D'\	.	8f#'\	.	4cc#'\	.	4ccc#'\	.
8C#'\J	.	8e'\J	.	.	.	.	.
(8BB/L	.	(8d\L	.	4cc#'\	.	4ccc#'\	.
8AA/)	.	8c#\)	.	.	.	.	.
8GG#'/	.	8B'\	.	4cc#'\	.	4ccc#'\	.
8FF#'/J	.	8A'\J	.	.	.	.	.
=36	=36	=36	=36	=36	=36	=36	=36
(2EE#/	.	(2G#/	.	[2cc#\	.	(8ccc#\L	.
.	.	.	.	.	.	8ddd\	.
.	.	.	.	.	.	8ccc#\	.
.	.	.	.	.	.	8bb\J)	.
4FF#/)	.	8A/L)	.	8cc#\L]	.	4aa\	.
.	.	(8B/	.	(8dd\	.	.	.
(8A\L	.	8A/	.	8cc#\	.	(8ff#\L	.
8B\J)	.	8G#/J)	.	8b\J)	.	8gg#\J)	.
=37	=37	=37	=37	=37	=37	=37	=37
(8c#\L	.	1F#/	.	(8a/L	.	(8aa\L	.
8d\)	.	.	.	8g#/)	.	8bb\J)	.
8c#'\	.	.	.	8a'/	.	4ccc#'\	.
8B'\J	.	.	.	8b'/J	.	.	.
(8A\L	.	.	.	(8cc#/L	.	4ccc#'\	.
8G#\)	.	.	.	8b/)	.	.	.
8F#'\	.	.	.	8a'/	.	4ccc#'\	.
8En'\J	.	.	.	8g#'/J	.	.	.
=38	=38	=38	=38	=38	=38	=38	=38
(2D#\	.	[1B/	.	(2f#/	.	(8bb\L	.
.	.	.	.	.	.	8ccc#\	.
.	.	.	.	.	.	8bb\	.
.	.	.	.	.	.	8aa\J)	.
4E\)	.	.	.	4g#/)	.	4gg#'\	.
(8E\L	.	.	.	(8g#/L	.	(8bb\L	.
8F#\J)	.	.	.	8f#/J)	.	8aa\J)	.
=39	=39	=39	=39	=39	=39	=39	=39
4G#\	.	1B/]	.	4e/	.	(8gg#\L	.
.	.	.	.	.	.	8ff#\)	.
4G#\	.	.	.	4e/	.	8ee'\	.
.	.	.	.	.	.	8dd#'\J	.
4G#\	.	.	.	4e/	.	(8cc#/L	.
.	.	.	.	.	.	8b/)	.
4G#\	.	.	.	4e/	.	8a'/	.
.	.	.	.	.	.	8g#'/J	.
=40	=40	=40	=40	=40	=40	=40	=40
4A\	.	2c#\	.	[1e/	.	(8f#/L	.
.	.	.	.	.	.	8g#/	.
4A\	.	.	.	.	.	8f#/	.
.	.	.	.	.	.	8g#/J)	.
4B\	.	2B/	.	.	.	(8f#/L	.
.	.	.	.	.	.	8g#/	.
4B\	.	.	.	.	.	8f#/	.
.	.	.	.	.	.	8g#/J)	.
=41	=41	=41	=41	=41	=41	=41	=41
4c#z\	z	4c#z\	z	1ez/_	z	(4bz\	z
4c#\	.	4c#\	.	.	.	4a#/	.
4B\	.	4B/	.	.	.	4an/	.
4B\	.	4B/	.	.	.	4g#/)	.
=42	=42	=42	=42	=42	=42	=42	=42
4A\	.	2c#\	.	1e/_	.	(8f#/L	.
.	.	.	.	.	.	8g#/	.
4A\	.	.	.	.	.	8f#/	.
.	.	.	.	.	.	8g#/J)	.
4B\	.	2B/	.	.	.	(8f#/L	.
.	.	.	.	.	.	8g#/	.
4B\	.	.	.	.	.	8f#/	.
.	.	.	.	.	.	8g#/J)	.
=43	=43	=43	=43	=43	=43	=43	=43
4c#z\	z	4c#z\	z	1ez/_	z	(4bz\	z
4c#\	.	4c#\	.	.	.	4a#/	.
4B\	.	4B/	.	.	.	4an/	.
4B\	.	4B/	.	.	.	4g#/)	.
=44	=44	=44	=44	=44	=44	=44	=44
4A\	.	[1c#\	.	1e/_	.	(8f#/L	.
.	.	.	.	.	.	8g#/	.
4A\	.	.	.	.	.	8f#/	.
.	.	.	.	.	.	8g#/J)	.
4A\	.	.	.	.	.	(8f#/L	.
.	.	.	.	.	.	8g#/	.
4A\	.	.	.	.	.	8f#/	.
.	.	.	.	.	.	8g#/J)	.
=45	=45	=45	=45	=45	=45	=45	=45
4A#\	ff	(1c#\]	ff	(1e/]	ff	(8f#/L	ff
.	.	.	.	.	.	8gn/	.
4A#\	.	.	.	.	.	8f#/	.
.	.	.	.	.	.	8g/J)	.
4A#\	.	.	.	.	.	(4g/	.
4A#\	.	.	.	.	.	8f#/L	.
.	.	.	.	.	.	8e/J)	.
=46	=46	=46	=46	=46	=46	=46	=46
2B\	.	2B/)	.	2d#/)	.	4d#/	.
.	.	.	.	.	.	4b'\)	.
2r	.	2r	.	4r	.	4B/	.
.	.	.	.	(8ff#\L	.	(8aan\L	.
.	.	.	.	8ee\J)	.	8gg#\J)	.
=47	=47	=47	=47	=47	=47	=47	=47
2r	.	2r	.	(8dd#\L	.	(8ff#\L	.
.	.	.	.	8cc#\)	.	8ee\)	.
.	.	.	.	8b'\	.	8dd#'\	.
.	.	.	.	8a'\J	.	8cc#'\J	.
4r	.	4r	.	(8g#/L	.	(8b/L	.
.	.	.	.	8f#/)	.	8a/)	.
(8EE/L	.	(8G#/L	.	8e'/	.	8g#'/	.
8FF#/J)	.	8A/J)	.	8d#'/J	.	8f#'/J	.
=48	=48	=48	=48	=48	=48	=48	=48
(8GG#/L	.	(8B\L	.	4e/	.	4e/	.
8AAn/)	.	8c#\)	.	.	.	.	.
8BB'/	.	8d#'\	.	4r	.	4r	.
8C#'/J	.	8e'\J	.	.	.	.	.
(8D#\L	.	(8f#\L	.	4r	.	4r	.
8E\)	.	8g#\)	.	.	.	.	.
8F#'\	.	8a'\	.	(8ff#\L	.	(8aa\L	.
8G#'\J	.	8b'\J	.	8ee\J)	.	8gg#\J)	.
=49	=49	=49	=49	=49	=49	=49	=49
4A\	.	4a\	.	(8dd#\L	.	(8ff#\L	.
.	.	.	.	8cc#\)	.	8ee\)	.
4r	.	4r	.	8b'\	.	8dd#'\	.
.	.	.	.	8a'\J	.	8cc#'\J	.
4r	.	4r	.	(8g#/L	.	(8b/L	.
.	.	.	.	8f#/)	.	8a/)	.
(8EE/L	.	(8G#/L	.	8e'/	.	8g#'/	.
8FF#/J)	.	8A/J)	.	8d#'/J	.	8f#'/J	.
=50	=50	=50	=50	=50	=50	=50	=50
(8GG#/L	.	(8B\L	.	4e/	.	4e/	.
8AA/)	.	8c#\)	.	.	.	.	.
8BB'/	.	8d#'\	.	4r	.	4r	.
8C#'/J	.	8e'\J	.	.	.	.	.
(8D#\L	.	(8f#\L	.	4r	.	4r	.
8E\)	.	8g#\)	.	.	.	.	.
8F#'\	.	8a'\	.	(8ff#\L	.	(8aa\L	.
8G#'\J	.	8b'\J	.	8ee\J)	.	8gg#\J)	.
=51	=51	=51	=51	=51	=51	=51	=51
2A\	.	4a\	.	4dd#\	.	(8ff#\L	.
.	.	.	.	.	.	8ee\	.
.	.	4r	.	4r	.	8dd#\	.
.	.	.	.	.	.	8cc#\J)	.
2r	.	2r	.	2r	.	4b'\	.
.	.	.	.	.	.	(8ccc#\L	.
.	.	.	.	.	.	8bb\J)	.
=52	=52	=52	=52	=52	=52	=52	=52
2A\	.	2f#\	.	2d#/	.	(8aa\L	.
.	.	.	.	.	.	8gg#\	.
.	.	.	.	.	.	8ff#\	.
.	.	.	.	.	.	8ee\J)	.
4r	.	4r	.	2r	.	4dd#\	.
4G#\	.	4B/	.	.	.	(8eee\L	.
.	.	.	.	.	.	8ddd#\J)	.
=53	=53	=53	=53	=53	=53	=53	=53
(8G#\L	.	2.B/	.	[1ee\	.	(8eee\L	.
8A\	.	.	.	.	.	8ddd#\	.
8G#\	.	.	.	.	.	8eee\	.
8A\J)	.	.	.	.	.	8ddd#\J)	.
4G#'\	.	.	.	.	.	(8eee\L	.
.	.	.	.	.	.	8ddd#\	.
4G#'\	.	4e\	.	.	.	8ccc#\	.
.	.	.	.	.	.	8bb#\J)	.
=54	=54	=54	=54	=54	=54	=54	=54
(8A\L	.	(8A/L	.	2ee\_	.	(8ccc#\L	.
8G#\	.	8G#/	.	.	.	8bb#\	.
8A\	.	8A/	.	.	.	8ccc#\	.
8G#\J)	.	8G#/J)	.	.	.	8bb#\J)	.
4A'\	.	4A'/	.	8ee\L]	.	(8ccc#\L	.
.	.	.	.	(8cc#\	.	8aa\	.
4A'\	.	4c#'\	.	8b\	.	8gg#\	.
.	.	.	.	8a\J)	.	8ff#\J)	.
=55	=55	=55	=55	=55	=55	=55	=55
4B'\	>	4B'/	>	(2g#/	>	2ee\	.
4B'\	.	4e'\	.	.	.	.	.
4BB'/	.	4d#'\	.	4a/)	.	(8gg#\L	.
.	.	.	.	.	.	8ff#\	.
4BB'/	]	4B'/	]	4d#/	]	8ee\	.
.	.	.	.	.	.	8ff#\J)	.
=56	=56	=56	=56	=56	=56	=56	=56
[1EE/	mf	2e\	.	(8e/L	mf	2.ee\	mf
.	.	.	.	8f#/	.	.	.
.	.	.	.	8gn/	.	.	.
.	.	.	.	8f#/J)	.	.	.
.	.	2r	.	(8e/L	.	.	.
.	.	.	.	8f#/	.	.	.
.	.	.	.	8e/	.	(8ggn\L	.
.	.	.	.	8dn/J)	.	8ff#\J)	.
=57	=57	=57	=57	=57	=57	=57	=57
! dim.	!	! dim.	!	! dim.	!	! dim.	!
1EE/_	.	(1A#/	.	(1c#/	.	(8ee\L	.
.	.	.	.	.	.	8ff#\)	.
.	.	.	.	.	.	(8ddn\	.
.	.	.	.	.	.	8ee\J)	.
.	.	.	.	.	.	4cc#'\	.
.	.	.	.	.	.	(8ff#\L	.
.	.	.	.	.	.	8ee\J)	.
=58	=58	=58	=58	=58	=58	=58	=58
1EE/_	.	1B/	.	1d/	.	(8dd\L	.
.	.	.	.	.	.	8ee\)	.
.	.	.	.	.	.	(8cc#\	.
.	.	.	.	.	.	8dd\J)	.
.	.	.	.	.	.	4b'\	.
.	.	.	.	.	.	(8ff#\L	.
.	.	.	.	.	.	8ee\J)	.
=59	=59	=59	=59	=59	=59	=59	=59
1EE/]	.	1G#/)	.	1B/)	.	(8dd\L	.
.	.	.	.	.	.	8ee\)	.
.	.	.	.	.	.	(8cc#\	.
.	.	.	.	.	.	8dd\J)	.
.	.	.	.	.	.	4b'\	.
.	.	.	.	.	.	4r	.
=60	=60	=60	=60	=60	=60	=60	=60
1r	.	1r	.	1r	.	2r	.
.	.	.	.	.	.	4r	.
.	.	.	.	.	.	(8bb\L	p
.	.	.	.	.	.	8aa\J)	.
=61	=61	=61	=61	=61	=61	=61	=61
1E\	mf	1r	.	1r	.	(8gg#\L	<
.	.	.	.	.	.	8aa\)	.
.	.	.	.	.	.	(8ff#\	.
.	.	.	.	.	.	8gg#\J)	.
.	.	.	.	.	.	(8ee\L	.
.	.	.	.	.	.	8ff#\)	.
.	.	.	.	.	.	(8dd\	.
.	.	.	.	.	.	8ee\J)	]
=62	=62	=62	=62	=62	=62	=62	=62
2A\	.	4r	.	1r	.	8cc#'\L	mf
.	.	.	.	.	.	8dd'\	.
.	.	4e'\	mf	.	.	8ee'\	.
.	.	.	.	.	.	8cc#'\J	.
2c#\	.	4e'\	.	.	.	8a'\L	.
.	.	.	.	.	.	8b'\	.
.	.	4e'\	.	.	.	8cc#'\	.
.	.	.	.	.	.	8a'\J	.
=63	=63	=63	=63	=63	=63	=63	=63
1D#\	.	2a\	.	1r	.	8f#'/L	.
.	.	.	.	.	.	8g#'/	.
.	.	.	.	.	.	8a'/	.
.	.	.	.	.	.	8f#'/J	.
.	.	4f#\	.	.	.	8b'\L	.
.	.	.	.	.	.	8cc#'\	.
.	.	[4b\	.	.	.	8b'\	.
.	.	.	.	.	.	8a'\J	.
=64	=64	=64	=64	=64	=64	=64	=64
2E\	.	4b\]	.	1r	.	8g#'/L	.
.	.	.	.	.	.	8a'/	.
.	.	4g#'\	.	.	.	8b'/	.
.	.	.	.	.	.	8a'/J	.
2r	.	4e'\	.	.	.	8g#'/L	.
.	.	.	.	.	.	8e'/	.
.	.	(8ee\L	.	.	.	8f#'/	.
.	.	8dd\J)	.	.	.	8g#'/J	.
=65	=65	=65	=65	=65	=65	=65	=65
1r	.	(8cc#\L	.	1a/	mf	2a/	.
.	.	8dd\)	.	.	.	.	.
.	.	(8b\	.	.	.	.	.
.	.	8cc#\J)	.	.	.	.	.
.	.	(8a\L	.	.	.	2r	.
.	.	8b\)	.	.	.	.	.
.	.	(8g#\	.	.	.	.	.
.	.	8a\J)	.	.	.	.	.
=66	=66	=66	=66	=66	=66	=66	=66
1r	.	8f#'\L	.	2dd\	.	1r	.
.	.	8g#'\	.	.	.	.	.
.	.	8a'\	.	.	.	.	.
.	.	8f#'\J	.	.	.	.	.
.	.	8d'\L	.	2ff#\	.	.	.
.	.	8e'\	.	.	.	.	.
.	.	8f#'\	.	.	.	.	.
.	.	8d'\J	.	.	.	.	.
=67	=67	=67	=67	=67	=67	=67	=67
1r	.	8B'\L	.	1g#/	.	1r	.
.	.	8c#'\	.	.	.	.	.
.	.	8d'\	.	.	.	.	.
.	.	8B'\J	.	.	.	.	.
.	.	8e'\L	.	.	.	.	.
.	.	8f#'\	.	.	.	.	.
.	.	8e'\	.	.	.	.	.
.	.	8d'\J	.	.	.	.	.
=68	=68	=68	=68	=68	=68	=68	=68
1r	.	8c#'\L	.	4a/	.	1ee\	mf
.	.	8d'\	.	.	.	.	.
.	.	8B'\	.	4b\	.	.	.
.	.	8c#'\J	.	.	.	.	.
.	.	4A/	.	(8cc#\L	.	.	.
.	.	.	.	8dd\)	.	.	.
.	.	4r	.	(8ee\	.	.	.
.	.	.	.	8dd\J)	.	.	.
=69	=69	=69	=69	=69	=69	=69	=69
1r	.	1r	.	(8cc#\L	.	2aa\	.
.	.	.	.	8dd\)	.	.	.
.	.	.	.	(8b\	.	.	.
.	.	.	.	8cc#\J)	.	.	.
.	.	.	.	(8a/L	.	2ccc#\	.
.	.	.	.	8b/)	.	.	.
.	.	.	.	(8g#/	.	.	.
.	.	.	.	8a/J)	.	.	.
=70	=70	=70	=70	=70	=70	=70	=70
1r	.	1r	.	8f#/L	.	1dd#\	.
.	.	.	.	8g#/	.	.	.
.	.	.	.	8a/	.	.	.
.	.	.	.	8f#/J	.	.	.
.	.	.	.	8b\L	.	.	.
.	.	.	.	8cc#\	.	.	.
.	.	.	.	8b\	.	.	.
.	.	.	.	8a\J	.	.	.
=71	=71	=71	=71	=71	=71	=71	=71
2r	.	1r	.	8g#/L	.	2.ee\	.
.	.	.	.	8a/	.	.	.
.	.	.	.	8g#/	.	.	.
.	.	.	.	8f#/J	.	.	.
4r	.	.	.	8e/L	.	.	.
.	.	.	.	8g#/	.	.	.
(8e\L	.	.	.	8a/	.	(8ff#\L	.
8d\J)	.	.	.	8b/J	.	8gg#\J)	.
=72	=72	=72	=72	=72	=72	=72	=72
(8c#\L	.	1a\	mf	4cc#\	.	2aa\	.
8d\)	.	.	.	.	.	.	.
(8B\	.	.	.	(8e/L	.	.	.
8c#\J)	.	.	.	8d/J)	.	.	.
(8A\L	.	.	.	(8c#/L	.	2r	.
8B\)	.	.	.	8d/)	.	.	.
(8G#\	.	.	.	(8B/	.	.	.
8A\J)	.	.	.	8c#/J)	.	.	.
=73	=73	=73	=73	=73	=73	=73	=73
8F#'\L	.	2dd\	.	4A/	.	4r	.
8G#'\	.	.	.	.	.	.	.
8A'\	.	.	.	4r	.	4a/	.
8F#'\J	.	.	.	.	.	.	.
8D'\L	.	2ff#\	.	2r	.	4a/	.
8E'\	.	.	.	.	.	.	.
8F#'\	.	.	.	.	.	4a/	.
8D'\J	.	.	.	.	.	.	.
=74	=74	=74	=74	=74	=74	=74	=74
8BB'/L	.	1g#\	.	1r	.	2dd\	.
8C#'/	.	.	.	.	.	.	.
8D'/	.	.	.	.	.	.	.
8BB'/J	.	.	.	.	.	.	.
8E'\L	.	.	.	.	.	4b\	.
8F#'\	.	.	.	.	.	.	.
8E'\	.	.	.	.	.	[4ee\	.
8D'\J	.	.	.	.	.	.	.
=75	=75	=75	=75	=75	=75	=75	=75
8C#'/L	.	4a'\	.	4r	.	8ee\L]	.
8D'/	.	.	.	.	.	8ff#'\	.
8C#'/	.	4b'\	.	4a'/	.	8ee'\	.
8BB'/J	.	.	.	.	.	8dd'\J	.
4AA/	.	8cc#'\L	.	4a'/	.	4cc#\	.
.	.	8a'\	.	.	.	.	.
4r	.	8b'\	.	4a'/	.	4r	.
.	.	8cc#'\J	.	.	.	.	.
=76	=76	=76	=76	=76	=76	=76	=76
1r	.	8dd'\L	.	2a/	.	1r	.
.	.	8b'\	.	.	.	.	.
.	.	8cc#'\	.	.	.	.	.
.	.	8dd'\J	.	.	.	.	.
.	.	8ee'\L	.	2g#/	.	.	.
.	.	8b'\	.	.	.	.	.
.	.	8ee'\	.	.	.	.	.
.	.	8dd'\J	.	.	.	.	.
=77	=77	=77	=77	=77	=77	=77	=77
1AA/	mf	8cc#'\L	.	[2gn/	.	1r	.
.	.	8dd'\	.	.	.	.	.
.	.	8b'\	.	.	.	.	.
.	.	8cc#'\J	.	.	.	.	.
.	.	4a\	.	8g/L]	.	.	.
.	.	.	.	8e'/	.	.	.
.	.	4a\	.	8a'/	.	.	.
.	.	.	.	8g'/J	.	.	.
=78	=78	=78	=78	=78	=78	=78	=78
2D\	.	8a'\L	.	8f#'/L	.	1dd\	mf
.	.	8b'\	.	8gn'/	.	.	.
.	.	8gn'\	.	8e'/	.	.	.
.	.	8a'\J	.	8f#'/J	.	.	.
2F#\	.	4f#\	.	8d'/L	.	.	.
.	.	.	.	8e'/	.	.	.
.	.	4r	.	8c#'/	.	.	.
.	.	.	.	8d'/J	.	.	.
=79	=79	=79	=79	=79	=79	=79	=79
8B'\L	.	1r	.	4B'/	.	2ggn\	.
8c#'\	.	.	.	.	.	.	.
8d'\	.	.	.	4d'/	.	.	.
8B'\J	.	.	.	.	.	.	.
8Gn'\L	.	.	.	4d'/	.	2bb\	.
8A'\	.	.	.	.	.	.	.
8B'\	.	.	.	4d'/	.	.	.
8G'\J	.	.	.	.	.	.	.
=80	=80	=80	=80	=80	=80	=80	=80
8E'\L	.	1r	.	2gn/	.	1cc#\	.
8F#'\	.	.	.	.	.	.	.
8Gn'\	.	.	.	.	.	.	.
8E'\J	.	.	.	.	.	.	.
8A'\L	.	.	.	4e'/	.	.	.
8B'\	.	.	.	.	.	.	.
8A'\	.	.	.	[4a/	.	.	.
8G'\J	.	.	.	.	.	.	.
=81	=81	=81	=81	=81	=81	=81	=81
8F#'\L	.	2D/	.	8a/L]	mf	8dd'\L	.
8Gn'\	.	.	.	8b'/	.	8b'\	.
8F#'\	.	.	.	8a'/	.	8dd'\	.
8E'\J	.	.	.	8gn'/J	.	8ee'\J	.
4D\	.	[2d\	.	4f#/	.	8ff#'\L	.
.	.	.	.	.	.	8dd'\	.
4r	.	.	.	4r	.	8ee'\	.
.	.	.	.	.	.	8ff#'\J	.
=82	=82	=82	=82	=82	=82	=82	=82
1r	.	2d\]	.	4r	.	8ggn\L	.
.	.	.	.	.	.	8ee\	.
.	.	.	.	4ee\	.	8ff#\	.
.	.	.	.	.	.	8gg\J	.
.	.	[2c#\	.	4e/	.	8aa\L	.
.	.	.	.	.	.	8bb\	.
.	.	.	.	4ee\	.	8aa\	.
.	.	.	.	.	.	8gg\J	.
=83	=83	=83	=83	=83	=83	=83	=83
1r	.	2c#\]	.	4r	.	8ff#\L	.
.	.	.	.	.	.	8dd\	.
.	.	.	.	4dd\	.	8ee\	.
.	.	.	.	.	.	8ff#\J	.
.	.	[2B/	.	4d/	.	8ggn\L	.
.	.	.	.	.	.	8aa\	.
.	.	.	.	4dd\	.	8gg\	.
.	.	.	.	.	.	8ff#\J	.
=84	=84	=84	=84	=84	=84	=84	=84
1F#\	mf	2B/]	.	4r	.	8ee\L	.
.	.	.	.	.	.	8cc#\	.
.	.	.	.	4cc#\	.	8dd\	.
.	.	.	.	.	.	8ee\J	.
.	.	2A#/	.	4c#/	.	8ff#\L	.
.	.	.	.	.	.	8ggn\	.
.	.	.	.	4cc#\	.	8ff#\	.
.	.	.	.	.	.	8ee\J	.
=85	=85	=85	=85	=85	=85	=85	=85
2B\	.	4B/	.	4dd\	.	8dd\L	.
.	.	.	.	.	.	8ee\	.
.	.	4f#'\	.	4r	.	8cc#\	.
.	.	.	.	.	.	8dd\J	.
2d\	.	4f#'\	.	2r	.	8b/L	.
.	.	.	.	.	.	8cc#/	.
.	.	4f#'\	.	.	.	8a/	.
.	.	.	.	.	.	8b/J	.
=86	=86	=86	=86	=86	=86	=86	=86
1E#\	.	4g#\	.	1cc#\	mf	8g#/L	.
.	.	.	.	.	.	8a/	.
.	.	2c#\	.	.	.	8b/	.
.	.	.	.	.	.	8g#/J	.
.	.	.	.	.	.	8cc#\L	.
.	.	.	.	.	.	8dd\	.
.	.	4g#\	.	.	.	8cc#\	.
.	.	.	.	.	.	8b\J	.
=87	=87	=87	=87	=87	=87	=87	=87
1F#\	.	(8cc#\L	.	2ff#\	.	2a/	.
.	.	8dd\)	.	.	.	.	.
.	.	(8b\	.	.	.	.	.
.	.	8cc#\J)	.	.	.	.	.
.	.	(8a\L	.	2aa\	.	2r	.
.	.	8b\)	.	.	.	.	.
.	.	(8g#\	.	.	.	.	.
.	.	8a\J)	.	.	.	.	.
=88	=88	=88	=88	=88	=88	=88	=88
1B\	.	(8f#\L	.	1dd#\	.	2r	.
.	.	8g#\	.	.	.	.	.
.	.	8a\	.	.	.	.	.
.	.	8g#\J)	.	.	.	.	.
.	.	(8f#\L	.	.	.	4r	.
.	.	8a\	.	.	.	.	.
.	.	8g#\	.	.	.	(8bb\L	.
.	.	8f#\J)	.	.	.	8aa\J)	.
=89	=89	=89	=89	=89	=89	=89	=89
2En\	.	1e\	.	2ee\	.	(8gg#\L	.
.	.	.	.	.	.	8aa\)	.
.	.	.	.	.	.	(8ff#\	.
.	.	.	.	.	.	8gg#\J)	.
2r	.	.	.	(8g#/L	.	(8ee\L	.
.	.	.	.	8a/	.	8ff#\)	.
.	.	.	.	8b/	.	(8dd\	.
.	.	.	.	8g#/J)	.	8ee\J)	.
=90	=90	=90	=90	=90	=90	=90	=90
1AA/	.	2a\	.	2e/	.	8cc#'\L	.
.	.	.	.	.	.	8dd'\	.
.	.	.	.	.	.	8ee'\	.
.	.	.	.	.	.	8cc#'\J	.
.	.	[2cc#\	.	2r	.	8a'\L	.
.	.	.	.	.	.	8b'\	.
.	.	.	.	.	.	8cc#'\	.
.	.	.	.	.	.	8a'\J	.
=91	=91	=91	=91	=91	=91	=91	=91
2D\	.	4cc#\]	.	2r	.	8f#/L	.
.	.	.	.	.	.	8g#/	.
.	.	(8f#\L	.	.	.	8a/	.
.	.	8g#\J)	.	.	.	8f#/J	.
2F#\	.	4a\	.	4r	.	8dd\L	.
.	.	.	.	.	.	8ee\	.
.	.	4a\	.	[4f#/	.	8ff#\	.
.	.	.	.	.	.	8dd\J	.
=92	=92	=92	=92	=92	=92	=92	=92
1GGn/	.	4b\	.	4f#/]	.	8b\L	.
.	.	.	.	.	.	8cc#\	.
.	.	4e\	.	2B/	.	8dd\	.
.	.	.	.	.	.	8b\J	.
.	.	4e\	.	.	.	8ee\L	.
.	.	.	.	.	.	8ff#\	.
.	.	4e\	.	[4b\	.	8ee\	.
.	.	.	.	.	.	8dd\J	.
=93	=93	=93	=93	=93	=93	=93	=93
2AA/	.	2e\	.	4b\]	.	8cc#\L	.
.	.	.	.	.	.	8dd\	.
.	.	.	.	2e/	.	8ee\	.
.	.	.	.	.	.	8cc#\J	.
2C#/	.	2r	.	.	.	8a\L	.
.	.	.	.	.	.	8b\	.
.	.	.	.	[4a/	.	8cc#\	.
.	.	.	.	.	.	8a\J	.
=94	=94	=94	=94	=94	=94	=94	=94
8D'\L	.	2A/	.	4a/]	.	8f#/L	.
8E'\	.	.	.	.	.	8g#/	.
8F#'\	.	.	.	4f#/	.	8a/	.
8D'\J	.	.	.	.	.	8f#/J	.
8BB'/L	.	[2B/	.	8f#'/L	.	8dd\L	.
8C#'/	.	.	.	8e'/	.	8cc#\	.
8D'/	.	.	.	8d'/	.	8b\	.
8BB'/J	.	.	.	8c#'/J	.	8a\J	.
=95	=95	=95	=95	=95	=95	=95	=95
8E'\L	.	2B/]	.	4B/	.	8g#/L	.
8F#'\	.	.	.	.	.	8a/	.
8G#'\	.	.	.	4r	.	8b/	.
8E'\J	.	.	.	.	.	8g#/J	.
8C#'\L	.	[2c#\	.	4r	.	8ee\L	.
8D'\	.	.	.	.	.	8dd\	.
8E'\	.	.	.	4g#/	.	8cc#\	.
8C#'\J	.	.	.	.	.	8b\J	.
=96	=96	=96	=96	=96	=96	=96	=96
8F#'\L	.	2c#\]	.	4a/	.	8a\L	.
8G#'\	.	.	.	.	.	8b\	.
8A'\	.	.	.	4f#/	.	8cc#\	.
8F#'\J	.	.	.	.	.	8a\J	.
8D'\L	.	[2d\	.	4r	.	8ff#\L	.
8E'\	.	.	.	.	.	8ee\	.
8F#'\	.	.	.	4a/	.	8dd\	.
8D'\J	.	.	.	.	.	8cc#\J	.
=97	=97	=97	=97	=97	=97	=97	=97
8G#'\L	.	2d\]	.	4b\	.	8b\L	.
8A'\	.	.	.	.	.	8cc#\	.
8B'\	.	.	.	4g#/	.	8dd\	.
8G#'\J	.	.	.	.	.	8b\J	.
4E\	.	4G#/	.	4r	.	8ee\L	.
.	.	.	.	.	.	8ff#\	.
4G#\	.	4B/	.	4e/	.	8ee\	.
.	.	.	.	.	.	8dd\J	.
=98	=98	=98	=98	=98	=98	=98	=98
4A\	.	4c#\	.	[1e/	.	8cc#\L	.
.	.	.	.	.	.	8dd\	.
4B\	.	4d\	.	.	.	8b\	.
.	.	.	.	.	.	8cc#\J	.
4c#\	.	4e\	.	.	.	8a\L	.
.	.	.	.	.	.	8ff#\	.
4G#\	.	4B/	.	.	.	8ee\	.
.	.	.	.	.	.	8dd\J	.
=99	=99	=99	=99	=99	=99	=99	=99
4A\	.	4c#\	.	2e/]	.	8cc#\L	.
.	.	.	.	.	.	8dd\	.
4B\	.	4d\	.	.	.	8b\	.
.	.	.	.	.	.	8cc#\J	.
4c#\	.	4e\	.	2r	.	8a\L	.
.	.	.	.	.	.	8aa\	.
4r	.	4r	.	.	.	8ccc#\	.
.	.	.	.	.	.	8bb\J	.
=100	=100	=100	=100	=100	=100	=100	=100
[1F#\	>]	[1A/	>]	2.d#/	>	8aa\L	>
.	.	.	.	.	.	8bb\	.
.	.	.	.	.	.	8aa\	.
.	.	.	.	.	.	8gg#\J	.
.	.	.	.	.	.	8ff#\L	.
.	.	.	.	.	.	8gg#\	.
.	.	.	.	(4cn/	]	8ff#\	.
.	.	.	.	.	.	8ee\J	]
=101	=101	=101	=101	=101	=101	=101	=101
1F#\_	p	1A/_	p	2.B/)	p	4dd#'\	p
.	.	.	.	.	.	4dd#'\	.
.	.	.	.	.	.	4dd#'\	.
.	.	.	.	(4cn/	.	(4aa\	.
=102	=102	=102	=102	=102	=102	=102	=102
1F#\_	.	1A/_	.	2.B/)	.	4dd#'\)	.
.	.	.	.	.	.	4dd#'\	.
.	.	.	.	.	.	4dd#'\	.
.	.	.	.	(4cn/	.	(4fff#\	.
=103	=103	=103	=103	=103	=103	=103	=103
1F#\_	.	1A/_	.	2.B/)	.	4dd#'\)	.
.	.	.	.	.	.	4dd#'\	.
.	.	.	.	.	.	4dd#'\	.
.	.	.	.	(4cn/	.	(4aa\	.
=104	=104	=104	=104	=104	=104	=104	=104
1F#\]	.	1A/]	.	2.B/)	.	4dd#\)	.
.	.	.	.	.	.	4dd#'\	.
.	.	.	.	.	.	4dd#'\	.
.	.	.	.	(4cn/	.	(4fff#\	.
=105	=105	=105	=105	=105	=105	=105	=105
! dim.	!	! dim.	!	! dim.	!	! dim.	!
2F#\	.	2A/	.	4B/)	.	4dd#\)	.
.	.	.	.	(4cn/	.	(4fff#\	.
2F#\	.	2A/	.	4B'/)	.	4dd#'\)	.
.	.	.	.	(4c/	.	(4fff#\	.
=106	=106	=106	=106	=106	=106	=106	=106
4F#\	.	4A/	.	4B'/)	.	4dd#\)	.
4r	.	4r	.	4r	.	4r	.
2r	.	2r	.	2r	.	2r	.
=107	=107	=107	=107	=107	=107	=107	=107
1r	.	1r	.	1r	.	2r	.
.	.	.	.	.	.	4r	.
.	.	.	.	.	.	(8bb\L	p
.	.	.	.	.	.	8aa\J)	.
=108	=108	=108	=108	=108	=108	=108	=108
2E\	p	2B/	p	2dn/	p	(8gg#\L	.
.	.	.	.	.	.	8aa\)	.
.	.	.	.	.	.	(8ff#\	.
.	.	.	.	.	.	8gg#\J)	.
2r	.	2r	.	2r	.	(8ee\L	.
.	.	.	.	.	.	8ff#\)	.
.	.	.	.	.	.	(8ddn\	.
.	.	.	.	.	.	8ee\J)	.
=109	=109	=109	=109	=109	=109	=109	=109
4A'\	.	4e'\	.	4e'/	.	4cc#'\	.
(4A'\	<	(4e'\	<	(4e'/	<	(4cc#'\	<
4A'\	.	4e'\	.	4e'/	.	4cc#'\	.
4A'\)	]	4e'\)	]	4e'/)	]	4cc#'\)	]
=110	=110	=110	=110	=110	=110	=110	=110
(2.G#\	f	[1e\	f	(2.b\	f	(4ee\	f
.	.	.	.	.	.	4dd#\	.
.	.	.	.	.	.	4ddn\	.
4A\)	.	.	.	4a/)	.	4cc#\)	.
=111	=111	=111	=111	=111	=111	=111	=111
2E\	.	2e\]	.	2g#/	.	&(8b\L)	.
.	.	.	.	.	.	8a\	.
.	.	.	.	.	.	8b\	.
.	.	.	.	.	.	8cc#\J&)	.
2r	.	2r	.	2r	.	4b'\	.
.	.	.	.	.	.	(8bb\L	p
.	.	.	.	.	.	8aa\J)	.
=112	=112	=112	=112	=112	=112	=112	=112
1r	.	1r	.	1r	.	(8gg#\L	.
.	.	.	.	.	.	8aa\)	.
.	.	.	.	.	.	(8ff#\	.
.	.	.	.	.	.	8gg#\J)	.
.	.	.	.	.	.	(8ee\L	.
.	.	.	.	.	.	8ff#\)	.
.	.	.	.	.	.	(8dd\	.
.	.	.	.	.	.	8ee\J)	.
=113	=113	=113	=113	=113	=113	=113	=113
4A'\	p	4e'\	p	4gn'/	p	4cc#'\	.
(4A'\	<	(4e'\	<	(4g'/	<	(4cc#'\	<
4A'\	.	4e'\	.	4g'/	.	4cc#'\	.
4A'\)	]	4e'\)	]	4g'/)	]	4cc#'\)	]
=114	=114	=114	=114	=114	=114	=114	=114
2D\	f	2d\	f	(4gn/	f	(4ee\	f
.	.	.	.	4f#/)	.	4dd\)	.
2r	.	2r	.	2r	.	(8ff#\L	.
.	.	.	.	.	.	8gg#\)	.
.	.	.	.	.	.	(8gg#\	.
.	.	.	.	.	.	8aa\J)	.
=115	=115	=115	=115	=115	=115	=115	=115
2E\	>	(2e\	>	(2c#/	>	(2.a/	>
2EE/	]	2G#/)	]	4e/	.	.	.
.	.	.	.	4d/)	]	8cc#\L	.
.	.	.	.	.	.	8b\J)	]
=116	=116	=116	=116	=116	=116	=116	=116
4AA/	p	4A/	p	4c#/	p	4a/	.
4AA/	.	4A/	.	4A/	.	4r	.
4AA/	.	4A/	.	(8g#/L	.	(8b\L	p
.	.	.	.	8a/)	.	8cc#\)	.
4AA/	.	4A/	.	(8a/	.	(8cc#\	.
.	.	.	.	8b/J)	.	8dd\J)	.
=117	=117	=117	=117	=117	=117	=117	=117
4AA/	.	4A/	.	4a/	.	4cc#\	.
4AA/	.	4A/	.	4A/	.	4r	.
4AA/	.	4A/	.	(8b\L	.	(8dd\L	.
.	.	.	.	8cc#\)	.	8ee\)	.
4AA/	.	4A/	.	(8cc#\	.	(8ee\	.
.	.	.	.	8dd\J)	.	8ff#\J)	.
=118	=118	=118	=118	=118	=118	=118	=118
4AA/	.	4A/	.	4cc#\	.	4ee\	.
4AA/	.	4A/	.	4A/	.	4r	.
4r	.	4r	.	2r	.	(8aa\L	.
.	.	.	.	.	.	8gg#\)	.
4C#/	.	4A/	.	.	.	(8aa\	.
.	.	.	.	.	.	8ee#\J)	.
=119	=119	=119	=119	=119	=119	=119	=119
4r	.	4r	.	(8ff#\L	.	4ff#\	.
.	.	.	.	8ee#\)	.	.	.
4D\	.	4A/	.	(8ff#\	.	4r	.
.	.	.	.	8cc#\J)	.	.	.
4r	.	4r	.	4dd\	.	(8dd\L	.
.	.	.	.	.	.	8cc#\)	.
4D\	.	4f#\	.	4r	.	(8dd\	.
.	.	.	.	.	.	8a#\J)	.
=120	=120	=120	=120	=120	=120	=120	=120
4r	.	4r	.	(8b/L	.	4b\	.
.	.	.	.	8a#/)	.	.	.
4D\	.	4f#\	.	(8b/	.	4r	.
.	.	.	.	8f#/J)	.	.	.
4r	.	4r	.	4dd\	.	(8dd\L	.
.	.	.	.	.	.	8cc#\)	.
4D\	.	4f#\	.	4r	.	(8dd\	.
.	.	.	.	.	.	8b\J)	.
=121	=121	=121	=121	=121	=121	=121	=121
4r	.	4r	.	4r	.	(8ff#\L	<
.	.	.	.	.	.	8gg#\	.
4D\	<	4f#\	<	4b\	<	8aan\	.
.	.	.	.	.	.	8gg#\J)	.
4D\	.	4f#\	.	4b\	.	(8aa\L	.
.	.	.	.	.	.	8gg#\	.
4D\	]	4f#\	]	4b\	]	8aa\	.
.	.	.	.	.	.	8gg#\J)	]
=122	=122	=122	=122	=122	=122	=122	=122
4D#\	f	4f#\	f	4ccn\	f	(8aa\L	f
.	.	.	.	.	.	8gg#\	.
4D#\	.	4f#\	.	4cc\	.	8aa\	.
.	.	.	.	.	.	8gg#\J)	.
4D#\	.	4f#\	.	4cc\	.	(8aa\L	.
.	.	.	.	.	.	8gg#\	.
4D#\	.	4f#\	.	4cc\	.	8aa\	.
.	.	.	.	.	.	8gg#\J)	.
=123	=123	=123	=123	=123	=123	=123	=123
2E\	.	2e\	.	2cc#\	.	4aa'\	.
.	.	.	.	.	.	4ee'\	.
2r	.	2r	.	2r	.	4ccc#\	.
.	.	.	.	.	.	4aa\	.
=124	=124	=124	=124	=124	=124	=124	=124
2r	.	2r	.	1r	.	4eee\	.
.	.	.	.	.	.	4r	.
4r	.	4r	.	.	.	2r	.
(8B\L	p	(8d\L	p	.	.	.	.
8A\J)	.	8c#\J)	.	.	.	.	.
=125	=125	=125	=125	=125	=125	=125	=125
(8G#\L	.	(8B/L	.	2r	.	2r	.
8A\	.	8c#/	.	.	.	.	.
8G#\	.	8B/	.	.	.	.	.
8F#\J)	.	8A/J)	.	.	.	.	.
4E\	.	4G#/	.	4r	.	4r	.
4r	.	4r	.	(8d/L	p	(8f#/L	p
.	.	.	.	8c#/J)	.	8e/J)	.
=126	=126	=126	=126	=126	=126	=126	=126
2r	.	2r	.	(8B/L	.	(8d/L	.
.	.	.	.	8c#/	.	8e/	.
.	.	.	.	8B/	.	8d/	.
.	.	.	.	8A/J)	.	8c#/J)	.
4r	.	4r	.	4G#/	.	4B/	.
(8d\L	f	(8b\L	f	4r	.	4r	.
8c#\J)	.	8a\J)	.	.	.	.	.
=127	=127	=127	=127	=127	=127	=127	=127
(8B\L	.	(8g#\L	.	2r	.	2r	.
8c#\	.	8a\	.	.	.	.	.
8B\	.	8g#\	.	.	.	.	.
8A\J)	.	8f#\J)	.	.	.	.	.
4G#\	.	4e\	.	4r	.	4r	.
4r	.	4r	.	(8dd\L	f	(8ff#\L	f
.	.	.	.	8cc#\J)	.	8ee\J)	.
=128	=128	=128	=128	=128	=128	=128	=128
1r	.	1r	.	(8b\L	.	(8dd\L	.
.	.	.	.	8cc#\	.	8ee\	.
.	.	.	.	8b\	.	8dd\	.
.	.	.	.	8a\J)	.	8cc#\J)	.
.	.	.	.	4g#/	.	4b\	.
.	.	.	.	4r	.	(8bb\L	p
.	.	.	.	.	.	8aa\J)	.
=129	=129	=129	=129	=129	=129	=129	=129
1r	.	1r	.	1r	.	(8gg#\L	.
.	.	.	.	.	.	8aa\)	.
.	.	.	.	.	.	(8ff#\	.
.	.	.	.	.	.	8gg#\J)	.
.	.	.	.	.	.	(8ee\L	.
.	.	.	.	.	.	8ff#\)	.
.	.	.	.	.	.	(8dd\	.
.	.	.	.	.	.	8ee\J)	.
=130	=130	=130	=130	=130	=130	=130	=130
4A#\	p	4e\	p	4f#/	p	4cc#\	.
(4A#'\	<	(4e'\	<	(4f#'/	<	(4cc#'\	<
4A#'\	.	4e'\	.	4f#'/	.	4cc#'\	.
4A#'\)	]	4e'\)	]	4f#'/)	]	4cc#'\)	]
=131	=131	=131	=131	=131	=131	=131	=131
(2B\	f	(2B/	f	(2f#/	f	(4ee\	f
.	.	.	.	.	.	4dd#\	.
4G#\	.	4e\)	.	4b\	.	4ddn\	.
4A\)	.	4e\	.	4a/)	.	4cc#\)	.
=132	=132	=132	=132	=132	=132	=132	=132
2E\	.	2e\	.	2g#/	.	&(8b\L)	.
.	.	.	.	.	.	8a\	.
.	.	.	.	.	.	8b\	.
.	.	.	.	.	.	8cc#\J&)	.
2r	.	2r	.	2r	.	4b'\	.
.	.	.	.	.	.	(8bb\L	p
.	.	.	.	.	.	8aa\J)	.
=133	=133	=133	=133	=133	=133	=133	=133
1r	.	1r	.	1r	.	(8gg#\L	.
.	.	.	.	.	.	8aa\)	.
.	.	.	.	.	.	(8ff#\	.
.	.	.	.	.	.	8gg#\J)	.
.	.	.	.	.	.	(8ee\L	.
.	.	.	.	.	.	8ff#\)	.
.	.	.	.	.	.	(8dd\	.
.	.	.	.	.	.	8ee\J)	.
=134	=134	=134	=134	=134	=134	=134	=134
4e#'\	p	4g#'\	p	4b'\	p	4cc#\	.
(4e#'\	<	(4g#'\	<	(4b'\	<	(4cc#'\	<
4e#'\	.	4g#'\	.	4b'\	.	4cc#'\	.
4e#'\)	]	4g#'\)	]	4b'\)	]	4cc#'\)	]
=135	=135	=135	=135	=135	=135	=135	=135
2f#\	f	1f#\	f	1a/	f	(4ee\	f
.	.	.	.	.	.	4dd\)	.
2D\	.	.	.	.	.	(8ff#\L	.
.	.	.	.	.	.	8gg#\)	.
.	.	.	.	.	.	(8gg#\	.
.	.	.	.	.	.	8aa\J)	.
=136	=136	=136	=136	=136	=136	=136	=136
(2En\	>	(2e\	>	(2c#/	>	(2.a/	>
2EE/)	]	2G#/)	]	4e/	.	.	.
.	.	.	.	4d/)	]	8cc#\L	]
.	.	.	.	.	.	8b\J)	.
=137	=137	=137	=137	=137	=137	=137	=137
4AA/	<	2A/	.	4c#/	.	4a/	.
4AA/	.	.	.	4r	.	4r	.
4AA/	.	2r	.	2r	.	4r	.
4AA/	]	.	.	.	.	(8G#/L	f
.	.	.	.	.	.	8A/J)	.
=138	=138	=138	=138	=138	=138	=138	=138
4AA/	f	4r	.	1r	.	(8B/L	.
.	.	.	.	.	.	8c#/)	.
4AA/	.	8B'/L	.	.	.	8d'/	.
.	.	8c#'/J	.	.	.	8e'/J	.
4AA/	.	(8d\L	.	.	.	(8f#/L	.
.	.	8e\)	.	.	.	8g#/)	.
4AA/	.	8f#'\	.	.	.	8a'/	.
.	.	8g#'\J	.	.	.	8b'/J	.
=139	=139	=139	=139	=139	=139	=139	=139
4AA/	.	4a'\	.	2r	.	4cc#'\	.
4AA/	.	4b'\	.	.	.	4dd'\	.
4AA/	.	4cc#'\	.	4r	.	4ee'\	.
4AA/	.	(8dd\L	.	(8G#/L	f	(8B/L	.
.	.	8cc#\J)	.	8A/J)	.	8c#/J)	.
=140	=140	=140	=140	=140	=140	=140	=140
4AA/	.	(8b\L	.	(8B/L	.	(8d/L	.
.	.	8a\)	.	8c#/)	.	8e/)	.
4AA/	.	8g#'\	.	8d'/	.	8f#'/	.
.	.	8f#'\J	.	8e'/J	.	8g#'/J	.
4AA/	.	(8e\L	.	(8f#/L	.	(8a\L	.
.	.	8d\)	.	8g#/)	.	8b\)	.
4AA/	.	8c#'\	.	8a'/	.	8cc#'\	.
.	.	8B'\J	.	8b'/J	.	8dd'\J	.
=141	=141	=141	=141	=141	=141	=141	=141
4AA/	.	4A'/	.	4cc#'\	.	4ee'\	.
4AA/	.	4B'/	.	4dd'\	.	4gg#'\	.
4AA/	.	4c#'\	.	4cc#'\	.	4aa'\	.
4E'\	.	4e'\	.	(8gg#\L	.	(8bb\L	.
.	.	.	.	8bb\J)	.	8ddd\J)	.
=142	=142	=142	=142	=142	=142	=142	=142
4A'\	.	4e'\	.	4aa'\	.	4ccc#'\	.
4E'\	.	4e'\	.	(8b\L	.	(8gg#\L	.
.	.	.	.	8dd\J)	.	8bb\J)	.
4A'\	.	4e'\	.	4cc#'\	.	4aa'\	.
4E'\	.	4e'\	.	(8g#/L	.	(8b\L	.
.	.	.	.	8b/J)	.	8dd\J)	.
=143	=143	=143	=143	=143	=143	=143	=143
4A'\	.	4e'\	.	4a'/	.	4cc#'\	.
4E'\	.	4e'\	.	(8B/L	.	(8g#/L	.
.	.	.	.	8d/J)	.	8b/J)	.
4A'\	.	4e'\	.	4c#'/	.	4a'/	.
4E'\	.	4e'\	.	(8G#/L	.	(8d/L	.
.	.	.	.	8B/J)	.	8B/J)	.
=144	=144	=144	=144	=144	=144	=144	=144
4A'\	.	4c#'\	.	4A'/	.	4A/	.
4r	.	4r	.	4r	.	4r	.
4E'\	.	4e'\	.	4dd/ 4e'/	.	4gg#'\ 4b\	.
4r	.	4r	.	4r	.	4r	.
=145	=145	=145	=145	=145	=145	=145	=145
4AA'/	.	4a'\ 4e\ 4A\	.	4cc#/ 4e'/	.	4aa'\ 4cc#\	.
4r	.	4r	.	4r	.	4r	.
2r	.	2r	.	2r	.	2r	.
==|!	==|!	==|!	==|!	==|!	==|!	==|!	==|!
*-	*-	*-	*-	*-	*-	*-	*-
!!!RWG: Key is interpreted using the Humdrum key tool.
!!!GTL: 6 Quators ("Tost I + II")
!!!AFT: stage2
!!!END: 1994/09/16
!!!KEY: 2565125522
!!!EMD: Converted from MuseData to Humdrum Dec 16, 2000, by Andreas Kornstaedt using muse2kern.
!!!EMD: Manual editing by Craig Sapp, Nov 2001
